src/activities/babyshapes/resource/food/marmelade.svg

<?xml version="1.0" encoding="UTF-8" standalone="no"?>
<svg
   xmlns:dc="http://purl.org/dc/elements/1.1/"
   xmlns:cc="http://creativecommons.org/ns#"
   xmlns:rdf="http://www.w3.org/1999/02/22-rdf-syntax-ns#"
   xmlns:svg="http://www.w3.org/2000/svg"
   xmlns="http://www.w3.org/2000/svg"
   height="100"
   width="100"
   version="1.1"
   id="svg2">
  <metadata
     id="metadata8">
    <rdf:RDF>
      <cc:Work
         rdf:about="">
        <dc:format>image/svg+xml</dc:format>
        <dc:type
           rdf:resource="http://purl.org/dc/dcmitype/StillImage" />
        <dc:title></dc:title>
        <dc:date>2021</dc:date>
        <dc:creator>
          <cc:Agent>
            <dc:title>Timothée Giet</dc:title>
          </cc:Agent>
        </dc:creator>
        <cc:license
           rdf:resource="http://creativecommons.org/licenses/by-sa/4.0/" />
      </cc:Work>
      <cc:License
         rdf:about="http://creativecommons.org/licenses/by-sa/4.0/">
        <cc:permits
           rdf:resource="http://creativecommons.org/ns#Reproduction" />
        <cc:permits
           rdf:resource="http://creativecommons.org/ns#Distribution" />
        <cc:requires
           rdf:resource="http://creativecommons.org/ns#Notice" />
        <cc:requires
           rdf:resource="http://creativecommons.org/ns#Attribution" />
        <cc:permits
           rdf:resource="http://creativecommons.org/ns#DerivativeWorks" />
        <cc:requires
           rdf:resource="http://creativecommons.org/ns#ShareAlike" />
      </cc:License>
    </rdf:RDF>
  </metadata>
  <defs
     id="defs6" />
  <path
     id="rect855-5"
     d="M 16.790327,14.919633 H 83.209673 L 78.28972,87.429225 c 0,13.427705 -56.57944,13.427705 -56.57944,0 z"
     style="opacity:1;vector-effect:none;fill:#5e5e6a;fill-opacity:1;stroke:none;stroke-width:5.14056969;stroke-linecap:square;stroke-linejoin:round;stroke-miterlimit:4;stroke-dasharray:none;stroke-dashoffset:3.20000005;stroke-opacity:1" />
  <path
     id="rect855"
     d="m 19.447102,23.269556 c 12.960086,6.902924 48.24126,7.312645 61.105796,0 l -4.526355,62.619408 c 0,11.828222 -52.053086,11.828222 -52.053086,0 z"
     style="opacity:1;vector-effect:none;fill:#acaac9;fill-opacity:1;stroke:none;stroke-width:4.62768745;stroke-linecap:square;stroke-linejoin:round;stroke-miterlimit:4;stroke-dasharray:none;stroke-dashoffset:3.20000005;stroke-opacity:1" />
  <path
     id="path858"
     d="M 50,2.5 C 31.094368,2.5 15.768324,6.471756 15.768324,11.371166 V 18.4681 c 0,4.89941 15.326044,8.871166 34.231676,8.871166 18.905633,0 34.231676,-3.971756 34.231676,-8.871166 V 11.371166 C 84.231676,6.471756 68.905633,2.5 50,2.5 Z"
     style="opacity:1;vector-effect:none;fill:#285336;fill-opacity:1;stroke:none;stroke-width:4.64700556;stroke-linecap:square;stroke-linejoin:round;stroke-miterlimit:4;stroke-dasharray:none;stroke-dashoffset:3.20000005;stroke-opacity:1" />
  <ellipse
     ry="7.492878"
     rx="32.297684"
     cy="11.316032"
     cx="50"
     id="path858-6"
     style="opacity:1;vector-effect:none;fill:#3f8557;fill-opacity:1;stroke:none;stroke-width:4.14838219;stroke-linecap:square;stroke-linejoin:round;stroke-miterlimit:4;stroke-dasharray:none;stroke-dashoffset:3.20000005;stroke-opacity:1" />
  <path
     id="path858-7"
     d="M 50,20.292453 C 21.473603,19.957332 17.460568,14.378342 17.460568,14.378342 v 2.335572 c 0,4.89941 13.6338,8.871166 32.539432,8.871166 18.905633,0 32.539433,-3.971756 32.539433,-8.871166 v -2.335572 c 0,0 -4.013844,6.249221 -32.539433,5.914111 z"
     style="opacity:1;vector-effect:none;fill:#39794e;fill-opacity:1;stroke:none;stroke-width:4.64700556;stroke-linecap:square;stroke-linejoin:round;stroke-miterlimit:4;stroke-dasharray:none;stroke-dashoffset:3.20000005;stroke-opacity:1" />
  <path
     id="rect855-3"
     d="m 22.86514,45.213825 2.688532,39.18658 c 0,11.474053 48.892656,11.474053 48.892656,0 L 77.13486,45.213825 C 76.030781,39.025942 61.489851,35.62059 49.089979,40.476844 36.598292,45.369055 22.421728,41.410297 22.86514,45.213825 Z"
     style="opacity:1;vector-effect:none;fill:#da4571;fill-opacity:1;stroke:none;stroke-width:4.41733074;stroke-linecap:square;stroke-linejoin:round;stroke-miterlimit:4;stroke-dasharray:none;stroke-dashoffset:3.20000005;stroke-opacity:1" />
  <path
     id="rect855-3-5"
     d="m 22.86514,45.213825 2.688532,39.18658 c 0,11.474053 48.892656,11.474053 48.892656,0 L 77.13486,45.213825 C 76.75171,47.831134 59.856499,41.871534 49.983523,45.504748 37.42495,50.126248 23.226321,48.330501 22.86514,45.213825 Z"
     style="opacity:1;vector-effect:none;fill:#ac2b51;fill-opacity:1;stroke:none;stroke-width:4.41733074;stroke-linecap:square;stroke-linejoin:round;stroke-miterlimit:4;stroke-dasharray:none;stroke-dashoffset:3.20000005;stroke-opacity:1" />
  <path
     id="rect952"
     d="m 18.40571,38.72624 2.379506,35.085 c 13.157607,4.337683 24.268995,3.218782 35.480045,2.365645 V 41.091884 C 42.074441,42.1885 29.25764,41.636292 18.40571,38.72624 Z"
     style="opacity:1;vector-effect:none;fill:#6f6f6f;fill-opacity:1;stroke:none;stroke-width:4.73128891;stroke-linecap:square;stroke-linejoin:round;stroke-miterlimit:4;stroke-dasharray:none;stroke-dashoffset:3.20000005;stroke-opacity:1" />
  <path
     id="rect952-2"
     d="m 20.91169,40.480424 2.127501,32.32621 c 11.764133,3.996604 21.698755,2.965684 31.722483,2.17963 V 42.660054 C 42.073751,43.670441 30.614331,43.161655 20.91169,40.480424 Z"
     style="opacity:1;vector-effect:none;fill:#e3e3e3;fill-opacity:1;stroke:none;stroke-width:4.29425287;stroke-linecap:square;stroke-linejoin:round;stroke-miterlimit:4;stroke-dasharray:none;stroke-dashoffset:3.20000005;stroke-opacity:1" />
  <path
     id="path987-9"
     d="m 44.486846,55.892397 c 0,3.390835 -2.861012,6.139649 -6.390248,6.139649 -3.529236,0 -6.390247,-2.748814 -6.390247,-6.139649 0,-3.390834 3.111609,-4.134865 6.640844,-4.134866 3.529237,0 6.139651,0.744032 6.139651,4.134866 z"
     style="opacity:1;vector-effect:none;fill:#ac2b51;fill-opacity:1;stroke:none;stroke-width:4.73128891;stroke-linecap:square;stroke-linejoin:round;stroke-miterlimit:4;stroke-dasharray:none;stroke-dashoffset:3.20000005;stroke-opacity:1" />
  <path
     id="path987"
     d="m 39.224289,61.405552 c 0,3.390834 -2.861012,6.139649 -6.390248,6.139649 -3.529236,0 -6.390246,-2.748815 -6.390246,-6.139649 0,-3.390835 3.111609,-4.134865 6.640844,-4.134866 3.529236,0 6.13965,0.744031 6.13965,4.134866 z"
     style="opacity:1;vector-effect:none;fill:#da4571;fill-opacity:1;stroke:none;stroke-width:4.73128891;stroke-linecap:square;stroke-linejoin:round;stroke-miterlimit:4;stroke-dasharray:none;stroke-dashoffset:3.20000005;stroke-opacity:1" />
</svg>

<svg xmlns:dc="http://purl.org/dc/elements/1.1/" xmlns:cc="http://creativecommons.org/ns#" xmlns:rdf="http://www.w3.org/1999/02/22-rdf-syntax-ns#" xmlns="http://www.w3.org/2000/svg" height="100" width="100"><metadata><rdf:RDF><cc:Work><dc:format>image/svg+xml</dc:format><dc:type rdf:resource="http://purl.org/dc/dcmitype/StillImage"/><dc:title/><dc:date>2021</dc:date><dc:creator><cc:Agent><dc:title>Timothée Giet</dc:title></cc:Agent></dc:creator><cc:license rdf:resource="http://creativecommons.org/licenses/by-sa/4.0/"/></cc:Work><cc:License rdf:about="http://creativecommons.org/licenses/by-sa/4.0/"><cc:permits rdf:resource="http://creativecommons.org/ns#Reproduction"/><cc:permits rdf:resource="http://creativecommons.org/ns#Distribution"/><cc:requires rdf:resource="http://creativecommons.org/ns#Notice"/><cc:requires rdf:resource="http://creativecommons.org/ns#Attribution"/><cc:permits rdf:resource="http://creativecommons.org/ns#DerivativeWorks"/><cc:requires rdf:resource="http://creativecommons.org/ns#ShareAlike"/></cc:License></rdf:RDF></metadata><path d="M16.79 14.92h66.42l-4.92 72.51c0 13.427-56.58 13.427-56.58 0z" style="opacity:1;vector-effect:none;fill:#5e5e6a;fill-opacity:1;stroke:none;stroke-width:5.14056969;stroke-linecap:square;stroke-linejoin:round;stroke-miterlimit:4;stroke-dasharray:none;stroke-dashoffset:3.20000005;stroke-opacity:1"/><path d="M19.447 23.27c12.96 6.902 48.241 7.312 61.106 0l-4.526 62.619c0 11.828-52.054 11.828-52.054 0z" style="opacity:1;vector-effect:none;fill:#acaac9;fill-opacity:1;stroke:none;stroke-width:4.62768745;stroke-linecap:square;stroke-linejoin:round;stroke-miterlimit:4;stroke-dasharray:none;stroke-dashoffset:3.20000005;stroke-opacity:1"/><path d="M50 2.5c-18.906 0-34.232 3.972-34.232 8.871v7.097c0 4.9 15.326 8.871 34.232 8.871s34.232-3.971 34.232-8.87V11.37C84.232 6.471 68.906 2.5 50 2.5z" style="opacity:1;vector-effect:none;fill:#285336;fill-opacity:1;stroke:none;stroke-width:4.64700556;stroke-linecap:square;stroke-linejoin:round;stroke-miterlimit:4;stroke-dasharray:none;stroke-dashoffset:3.20000005;stroke-opacity:1"/><ellipse ry="7.492878" rx="32.297684" cy="11.316032" cx="50" style="opacity:1;vector-effect:none;fill:#3f8557;fill-opacity:1;stroke:none;stroke-width:4.14838219;stroke-linecap:square;stroke-linejoin:round;stroke-miterlimit:4;stroke-dasharray:none;stroke-dashoffset:3.20000005;stroke-opacity:1"/><path d="M50 20.292c-28.526-.335-32.54-5.914-32.54-5.914v2.336c0 4.9 13.634 8.871 32.54 8.871s32.54-3.972 32.54-8.871v-2.336s-4.014 6.25-32.54 5.914z" style="opacity:1;vector-effect:none;fill:#39794e;fill-opacity:1;stroke:none;stroke-width:4.64700556;stroke-linecap:square;stroke-linejoin:round;stroke-miterlimit:4;stroke-dasharray:none;stroke-dashoffset:3.20000005;stroke-opacity:1"/><path d="M22.865 45.214 25.554 84.4c0 11.474 48.892 11.474 48.892 0l2.689-39.186C76.03 39.026 61.49 35.62 49.09 40.477c-12.492 4.892-26.668.933-26.225 4.737z" style="opacity:1;vector-effect:none;fill:#da4571;fill-opacity:1;stroke:none;stroke-width:4.41733074;stroke-linecap:square;stroke-linejoin:round;stroke-miterlimit:4;stroke-dasharray:none;stroke-dashoffset:3.20000005;stroke-opacity:1"/><path d="M22.865 45.214 25.554 84.4c0 11.474 48.892 11.474 48.892 0l2.689-39.186c-.383 2.617-17.279-3.342-27.151.29-12.559 4.622-26.758 2.827-27.119-.29z" style="opacity:1;vector-effect:none;fill:#ac2b51;fill-opacity:1;stroke:none;stroke-width:4.41733074;stroke-linecap:square;stroke-linejoin:round;stroke-miterlimit:4;stroke-dasharray:none;stroke-dashoffset:3.20000005;stroke-opacity:1"/><path d="m18.406 38.726 2.38 35.085c13.157 4.338 24.268 3.219 35.48 2.366V41.092c-14.192 1.096-27.008.544-37.86-2.366z" style="opacity:1;vector-effect:none;fill:#6f6f6f;fill-opacity:1;stroke:none;stroke-width:4.73128891;stroke-linecap:square;stroke-linejoin:round;stroke-miterlimit:4;stroke-dasharray:none;stroke-dashoffset:3.20000005;stroke-opacity:1"/><path d="m20.912 40.48 2.127 32.327c11.764 3.996 21.699 2.965 31.723 2.18V42.66c-12.688 1.01-24.148.502-33.85-2.18z" style="opacity:1;vector-effect:none;fill:#e3e3e3;fill-opacity:1;stroke:none;stroke-width:4.29425287;stroke-linecap:square;stroke-linejoin:round;stroke-miterlimit:4;stroke-dasharray:none;stroke-dashoffset:3.20000005;stroke-opacity:1"/><path d="M44.487 55.892c0 3.391-2.861 6.14-6.39 6.14-3.53 0-6.39-2.749-6.39-6.14 0-3.39 3.111-4.134 6.64-4.134 3.53 0 6.14.744 6.14 4.134z" style="opacity:1;vector-effect:none;fill:#ac2b51;fill-opacity:1;stroke:none;stroke-width:4.73128891;stroke-linecap:square;stroke-linejoin:round;stroke-miterlimit:4;stroke-dasharray:none;stroke-dashoffset:3.20000005;stroke-opacity:1"/><path d="M39.224 61.406c0 3.39-2.86 6.14-6.39 6.14s-6.39-2.75-6.39-6.14c0-3.391 3.111-4.135 6.64-4.135 3.53 0 6.14.744 6.14 4.135z" style="opacity:1;vector-effect:none;fill:#da4571;fill-opacity:1;stroke:none;stroke-width:4.73128891;stroke-linecap:square;stroke-linejoin:round;stroke-miterlimit:4;stroke-dasharray:none;stroke-dashoffset:3.20000005;stroke-opacity:1"/></svg>
